material/.icons/material/cloud-tags.svg

<svg xmlns="http://www.w3.org/2000/svg" viewBox="0 0 24 24"><path d="M6 20a6 6 0 01-6-6c0-3.09 2.34-5.64 5.35-5.96A7.496 7.496 0 0112 4a7.5 7.5 0 017.35 6A5.02 5.02 0 0124 15a5 5 0 01-5 5H6M9.09 8.4L4.5 13l4.59 4.6 1.41-1.42L7.32 13l3.18-3.18L9.09 8.4m5.82 0L13.5 9.82 16.68 13l-3.18 3.18 1.41 1.42L19.5 13l-4.59-4.6z"/></svg>

<?xml version="1.0" encoding="UTF-8"?><!DOCTYPE svg PUBLIC "-//W3C//DTD SVG 1.1//EN" "http://www.w3.org/Graphics/SVG/1.1/DTD/svg11.dtd"><svg xmlns="http://www.w3.org/2000/svg" xmlns:xlink="http://www.w3.org/1999/xlink" version="1.1" id="mdi-cloud-tags" width="24" height="24" viewBox="0 0 24 24"><path d="M6,20A6,6 0 0,1 0,14C0,10.91 2.34,8.36 5.35,8.04C6.6,5.64 9.11,4 12,4C15.63,4 18.66,6.58 19.35,10C21.95,10.19 24,12.36 24,15A5,5 0 0,1 19,20H6M9.09,8.4L4.5,13L9.09,17.6L10.5,16.18L7.32,13L10.5,9.82L9.09,8.4M14.91,8.4L13.5,9.82L16.68,13L13.5,16.18L14.91,17.6L19.5,13L14.91,8.4Z" /></svg>
